coreui/free/cil-library-add.svg

<svg xmlns="http://www.w3.org/2000/svg" viewBox="0 0 512 512">
  <path fill="var(--ci-primary-color, currentColor)" d="M48,464V144H16V472a24.027,24.027,0,0,0,24,24H368V464H48Z" class="ci-primary"/>
  <path fill="var(--ci-primary-color, currentColor)" d="M144,400H112V80H80V408a24.027,24.027,0,0,0,24,24H432V400H144Z" class="ci-primary"/>
  <path fill="var(--ci-primary-color, currentColor)" d="M472,16H168a24.027,24.027,0,0,0-24,24V344a24.027,24.027,0,0,0,24,24H472a24.027,24.027,0,0,0,24-24V40A24.027,24.027,0,0,0,472,16Zm-8,320H176V48H464Z" class="ci-primary"/>
  <polygon fill="var(--ci-primary-color, currentColor)" points="304 288 336 288 336 204 420 204 420 172 336 172 336 88 304 88 304 172 220 172 220 204 304 204 304 288" class="ci-primary"/>
</svg>

<svg viewBox="0 0 512 512" xmlns="http://www.w3.org/2000/svg"><g><path d="M48 464V144H16v328h-.001c.01 13.24 10.75 23.98 24 24h328v-32h-320Z"/><path d="M144 400h-32V80H80v328 0c.01 13.24 10.75 23.98 24 24h328v-32H144Z"/><path d="M472 16H168v0c-13.25.01-23.99 10.75-24 24v304 0c.01 13.24 10.75 23.98 24 24h304v0c13.24-.02 23.98-10.76 24-24V40v0c-.02-13.25-10.76-23.99-24-24Zm-8 320H176V48h288Z"/><path d="M304 288l32 0 0-84 84 0 0-32 -84 0 0-84 -32 0 0 84 -84 0 0 32 84 0 0 84Z"/></g></svg>
